X:152
T:Stuart Robertson’s Rant. RH.152
R:Reel
S:Rev.R.Harrison’s MS,c1815,Cumbria
O:England
A:Temple Sowerby,Cumbria
Z:vmp.Simon Wilson. Review PJH, 2008.
M:C|
L:1/8
Q:1/2=85
K:Em
e|ceAe cAec|Bgdg BGdB|ceAe cAae|fdgB A/A/Ae2:|
dega beea|gedg BGdB|\
dega beeg|fdgB A/A/Ae2|!
defg beea|g>edg BGdB|dega bgae|fdgB A/A/Ae2|]

